X: 20681
T: TYROLESE SONG OF LIBERTY
Q: "Allegro Moderato"
%R: waltz, mazurka
B: "Edinburgh Repository of Music" v.2 p.68 #1
F: http://digital.nls.uk/special-collections-of-printed-music/pageturner.cfm?id=87776133
Z: 2015 John Chambers <jc:trillian.mit.edu>
M: 3/4
L: 1/8
K: D
|:\
D>D F>F A>A | f2 d2 d>d | (e2 g2) c>c | (d2 f2) z2 |\
D>D F>F A>A | f2 d2 d>d | (e2 g2) c2 |[1 d2z :|[2 d2 ||
|: d>d |\
(c2 e2) (d>c) | (d2 f2) (e>d) | (c2 e2) (d>c) | (d2 f2) z2 |\
D>D F>F A>A | f2 d2 d>d | (e2 g2) c2 | d4 :|

%%sep 2 1 500
%%sep 1 1 500

